X: 484
T:Fisherman's
T:Redican's Mother
R:slip jig
D:Matt Molloy: Heathery Breeze
Z:id:hn-slipjig-11
Z:transcribed by henrik.norbeck@mailbox.swipnet.se
M:9/8
N:Posted to the woodenflute mailing list January 2002
K:D
% TUNEdb Number 1684
FAA FAd AFD|FAA FAd B2A|FAA FAd AFD|EDB DFA B2A:|
|:~f3 faf edB|Aff fef gfe|f3 faf edB|AFE DFA B2A:|

